icons/home-quarantine_fill.svg

<svg width="48" height="48" viewBox="0 0 48 48" fill="none" xmlns="http://www.w3.org/2000/svg">
<path d="M20 18C20 15.7909 21.7909 14 24 14C26.2091 14 28 15.7909 28 18C28 20.2091 26.2091 22 24 22C21.7909 22 20 20.2091 20 18Z" fill="black"/>
<path fill-rule="evenodd" clip-rule="evenodd" d="M24.6021 6.2016C24.2457 5.93281 23.7543 5.9328 23.3979 6.20156L6.96761 18.5912C6.94039 18.6117 6.91424 18.6336 6.88926 18.6568C6.36165 19.1467 6.04366 19.8214 6.0017 20.5402C6.00057 20.5596 6 20.579 6 20.5985V39.5221L6 39.5252C6.00201 40.1809 6.26339 40.8092 6.72707 41.2729C7.19076 41.7366 7.81907 41.998 8.47481 42L8.47787 42H39.5221L39.5252 42C40.1809 41.998 40.8092 41.7366 41.2729 41.2729C41.7366 40.8092 41.998 40.1809 42 39.5252L42 39.5221V20.6C42 20.5806 41.9994 20.5611 41.9983 20.5417C41.9563 19.823 41.6384 19.1482 41.1107 18.6583C41.0858 18.6351 41.0596 18.6132 41.0324 18.5927L24.6021 6.2016ZM28.4402 35.1429L27.5902 40H39.5191C39.6462 39.9994 39.7688 39.9486 39.8587 39.8587C39.9486 39.7688 39.9994 39.6471 40 39.52V20.635C39.984 20.4534 39.9059 20.283 39.7791 20.1525L24 8.25247L8.22087 20.151C8.09409 20.2815 8.01597 20.4519 8 20.6335V39.5202C8.00068 39.6472 8.05144 39.7689 8.14128 39.8587C8.23117 39.9486 8.35288 39.9994 8.47997 40H20.4098L19.5598 35.1429H18C17.4477 35.1429 17 34.6951 17 34.1429V30.7143C17 28.9174 17.75 27.2045 19.0677 25.9495C20.3838 24.6961 22.1588 24 24 24C25.8412 24 27.6162 24.6961 28.9323 25.9495C30.25 27.2045 31 28.9174 31 30.7143V34.1429C31 34.6951 30.5523 35.1429 30 35.1429H28.4402Z" fill="black"/>
</svg>

<svg
  xmlns="http://www.w3.org/2000/svg"
  width="24"
  height="24"
  viewBox="0 0 24 24"
  fill="none"
  stroke="currentColor"
  stroke-width="2"
  stroke-linecap="round"
  stroke-linejoin="round"
>
  <path d="M20 18a4 4 0 1 1 8 0 4 4 0 0 1-8 0" />
  <path
    fill-rule="evenodd"
    d="M24.602 6.202a1 1 0 0 0-1.204 0l-16.43 12.39a1 1 0 0 0-.079.065A2.8 2.8 0 0 0 6 20.599v18.926A2.48 2.48 0 0 0 8.475 42h31.05A2.48 2.48 0 0 0 42 39.525V20.6q0-.03-.002-.058a2.8 2.8 0 0 0-.887-1.884 1 1 0 0 0-.079-.065zm3.838 28.94L27.59 40h11.93a.484.484 0 0 0 .48-.48V20.635a.8.8 0 0 0-.22-.483L24 8.253 8.22 20.151a.8.8 0 0 0-.22.483V39.52a.48.48 0 0 0 .48.48h11.93l-.85-4.857H18a1 1 0 0 1-1-1v-3.429c0-1.797.75-3.51 2.068-4.764A7.16 7.16 0 0 1 24 24c1.841 0 3.616.696 4.932 1.95C30.25 27.205 31 28.917 31 30.714v3.429a1 1 0 0 1-1 1z"
    clip-rule="evenodd"
  />
</svg>
